svgs/light/square-k.svg

<svg xmlns="http://www.w3.org/2000/svg" viewBox="0 0 448 512"><!-- Font Awesome Pro 6.0.0-alpha2 by @fontawesome - https://fontawesome.com License - https://fontawesome.com/license (Commercial License) --><path d="M384 32H64C28.654 32 0 60.654 0 96V416C0 451.346 28.654 480 64 480H384C419.348 480 448 451.346 448 416V96C448 60.654 419.348 32 384 32ZM416 416C416 433.645 401.645 448 384 448H64C46.355 448 32 433.645 32 416V96C32 78.355 46.355 64 64 64H384C401.645 64 416 78.355 416 96V416ZM315.891 133.297C309.969 126.687 299.844 126.203 293.297 132.109L160 252.076V144C160 135.156 152.844 128 144 128S128 135.156 128 144V368C128 376.844 135.156 384 144 384S160 376.844 160 368V295.123L201.402 257.861L291.203 377.594C294.344 381.797 299.141 384 304.016 384C307.359 384 310.719 382.953 313.594 380.797C320.672 375.5 322.109 365.469 316.797 358.406L225.275 236.377L314.703 155.891C321.266 149.984 321.797 139.859 315.891 133.297Z"/></svg>

<svg xmlns="http://www.w3.org/2000/svg" viewBox="0 0 448 512"><!--! Font Awesome Pro 6.0.0-alpha3 by @fontawesome - https://fontawesome.com License - https://fontawesome.com/license (Commercial License) --><path d="M384 32H64C28.65 32 0 60.65 0 96v320c0 35.35 28.65 64 64 64h320c35.35 0 64-28.65 64-64V96C448 60.65 419.3 32 384 32zM416 416c0 17.64-14.36 32-32 32H64c-17.64 0-32-14.36-32-32V96c0-17.64 14.36-32 32-32h320c17.64 0 32 14.36 32 32V416zM315.9 133.3c-5.922-6.609-16.05-7.094-22.59-1.188L160 252.1V144C160 135.2 152.8 128 144 128S128 135.2 128 144v224C128 376.8 135.2 384 144 384S160 376.8 160 368V295.1l41.4-37.26l89.8 119.7C294.3 381.8 299.1 384 304 384c3.344 0 6.703-1.047 9.578-3.203c7.078-5.297 8.516-15.33 3.203-22.39L225.3 236.4l89.43-80.49C321.3 149.1 321.8 139.9 315.9 133.3z"/></svg>
